X:18734
T:White Petticoat
M:6/8
L:1/8
R:Jig
Z:NJI
K:Em
Bed cBA|GFE B,EG|FBB cBB|eBB cBA|
Bed cBA|GFE B,EG|FFB cBA|1GEE E2A:|2GEE E2g|
|gec Gce|gaf gec|cBA EAc|Be^d eBG|
FBB GBB|FBA GFE|B,DG cBA|GEE E3:|


